build/img/number-2700.svg

<svg width="195" height="74" viewBox="0 0 195 74" fill="none" xmlns="http://www.w3.org/2000/svg">
<path opacity="0.47" d="M43.5332 73H1.63867V63.2344L20.877 38.7715C23.3184 35.3861 25.1087 32.4238 26.248 29.8848C27.4199 27.3132 28.0059 24.8555 28.0059 22.5117C28.0059 19.3542 27.4525 16.8802 26.3457 15.0898C25.2715 13.2995 23.709 12.4043 21.6582 12.4043C19.4121 12.4043 17.6217 13.446 16.2871 15.5293C14.985 17.6126 14.334 20.5423 14.334 24.3184H0.466797C0.466797 19.9564 1.36198 15.9688 3.15234 12.3555C4.97526 8.74219 7.51432 5.94271 10.7695 3.95703C14.0573 1.9388 17.7682 0.929688 21.9023 0.929688C28.25 0.929688 33.1654 2.6875 36.6484 6.20312C40.1641 9.6862 41.9219 14.6504 41.9219 21.0957C41.9219 25.0996 40.9453 29.1686 38.9922 33.3027C37.0716 37.4043 33.5723 42.4661 28.4941 48.4883L19.3633 61.5254H43.5332V73ZM93.9238 9.86523L71.4629 73H56.8633L79.4219 13.3809H50.9062V1.90625H93.9238V9.86523ZM144.119 43.6055C144.119 53.4362 142.329 60.9557 138.748 66.1641C135.2 71.3724 130.122 73.9766 123.514 73.9766C116.971 73.9766 111.909 71.4538 108.328 66.4082C104.78 61.3301 102.941 54.071 102.811 44.6309V31.2031C102.811 21.4049 104.585 13.918 108.133 8.74219C111.681 3.53385 116.775 0.929688 123.416 0.929688C130.057 0.929688 135.151 3.5013 138.699 8.64453C142.247 13.7878 144.054 21.1283 144.119 30.666V43.6055ZM130.252 29.2012C130.252 23.6022 129.699 19.403 128.592 16.6035C127.485 13.804 125.76 12.4043 123.416 12.4043C119.021 12.4043 116.743 17.5312 116.58 27.7852V45.5098C116.58 51.2389 117.133 55.5033 118.24 58.3027C119.38 61.1022 121.137 62.502 123.514 62.502C125.76 62.502 127.42 61.1999 128.494 58.5957C129.601 55.959 130.187 51.9388 130.252 46.5352V29.2012ZM194.705 43.6055C194.705 53.4362 192.915 60.9557 189.334 66.1641C185.786 71.3724 180.708 73.9766 174.1 73.9766C167.557 73.9766 162.495 71.4538 158.914 66.4082C155.366 61.3301 153.527 54.071 153.396 44.6309V31.2031C153.396 21.4049 155.171 13.918 158.719 8.74219C162.267 3.53385 167.361 0.929688 174.002 0.929688C180.643 0.929688 185.737 3.5013 189.285 8.64453C192.833 13.7878 194.64 21.1283 194.705 30.666V43.6055ZM180.838 29.2012C180.838 23.6022 180.285 19.403 179.178 16.6035C178.071 13.804 176.346 12.4043 174.002 12.4043C169.607 12.4043 167.329 17.5312 167.166 27.7852V45.5098C167.166 51.2389 167.719 55.5033 168.826 58.3027C169.965 61.1022 171.723 62.502 174.1 62.502C176.346 62.502 178.006 61.1999 179.08 58.5957C180.187 55.959 180.773 51.9388 180.838 46.5352V29.2012Z" fill="#E8E8E8"/>
</svg>

<svg width="195" height="74" fill="none" xmlns="http://www.w3.org/2000/svg"><path opacity=".47" d="M43.533 73H1.64v-9.766l19.238-24.462c2.441-3.386 4.232-6.348 5.371-8.887 1.172-2.572 1.758-5.03 1.758-7.373 0-3.158-.553-5.632-1.66-7.422-1.075-1.79-2.637-2.686-4.688-2.686-2.246 0-4.036 1.042-5.37 3.125-1.303 2.084-1.954 5.013-1.954 8.79H.467c0-4.363.895-8.35 2.685-11.963 1.823-3.614 4.362-6.413 7.617-8.399C14.058 1.939 17.77.93 21.902.93c6.348 0 11.263 1.757 14.746 5.273 3.516 3.483 5.274 8.447 5.274 14.893 0 4.004-.977 8.073-2.93 12.207-1.92 4.101-5.42 9.163-10.498 15.185l-9.13 13.037h24.17V73zm50.39-63.135L71.464 73h-14.6l22.559-59.62H50.906V1.907h43.018v7.96zm50.196 33.74c0 9.831-1.79 17.35-5.371 22.56-3.548 5.207-8.626 7.812-15.234 7.812-6.543 0-11.605-2.523-15.186-7.569-3.548-5.078-5.387-12.337-5.517-21.777V31.203c0-9.798 1.774-17.285 5.322-22.46 3.548-5.21 8.642-7.813 15.283-7.813s11.735 2.571 15.283 7.715c3.548 5.143 5.355 12.483 5.42 22.021v12.94zm-13.867-14.404c0-5.599-.553-9.798-1.66-12.598-1.107-2.799-2.832-4.199-5.176-4.199-4.395 0-6.673 5.127-6.836 15.381V45.51c0 5.729.553 9.993 1.66 12.793 1.14 2.8 2.897 4.199 5.274 4.199 2.246 0 3.906-1.302 4.98-3.906 1.107-2.637 1.693-6.657 1.758-12.06V29.2zm64.453 14.404c0 9.831-1.79 17.35-5.371 22.56-3.548 5.207-8.626 7.812-15.234 7.812-6.543 0-11.605-2.523-15.186-7.569-3.548-5.078-5.387-12.337-5.518-21.777V31.203c0-9.798 1.775-17.285 5.323-22.46 3.548-5.21 8.642-7.813 15.283-7.813s11.735 2.571 15.283 7.715c3.548 5.143 5.355 12.483 5.42 22.021v12.94zm-13.867-14.404c0-5.599-.553-9.798-1.66-12.598-1.107-2.799-2.832-4.199-5.176-4.199-4.395 0-6.673 5.127-6.836 15.381V45.51c0 5.729.553 9.993 1.66 12.793 1.139 2.8 2.897 4.199 5.274 4.199 2.246 0 3.906-1.302 4.98-3.906 1.107-2.637 1.693-6.657 1.758-12.06V29.2z" fill="#E8E8E8"/></svg>
